src/img/svg/leaf.svg

<svg width="22" height="22" viewBox="0 0 22 22" fill="none" xmlns="http://www.w3.org/2000/svg">
<path d="M20.6249 0C11.307 0 3.64275 7.16835 2.8306 16.2782C4.37885 14.0947 6.27544 11.9937 8.64319 9.57825C8.81919 9.39675 9.11069 9.3931 9.29129 9.57185C9.47189 9.74875 9.47464 10.0393 9.29769 10.2199C8.9411 10.5829 8.57904 10.9597 8.2151 11.341C8.007 11.5583 7.8035 11.7746 7.60369 11.9873C7.56704 12.0267 7.53035 12.0661 7.49369 12.1064C4.56769 15.2396 2.47584 17.9667 0.956899 21.3538C0.853302 21.5847 0.956899 21.8561 1.187 21.9597C1.2484 21.9872 1.31165 22 1.3749 22C1.55 22 1.71775 21.8992 1.7938 21.7296C2.33465 20.5242 2.96255 19.4058 3.6684 18.3177C10.0704 18.1537 15.8977 14.5924 18.952 8.9256C19.0281 8.7835 19.0244 8.6121 18.9419 8.47275C18.8585 8.33525 18.7091 8.25 18.5478 8.25H16.8501L19.8943 6.51015C19.9906 6.45515 20.0648 6.36625 20.1006 6.26175C20.7533 4.36425 21.0833 2.41175 21.0833 0.458348C21.0833 0.205348 20.8779 0 20.6249 0Z" fill="black"/>
</svg>

<svg width="22" height="22" fill="none" xmlns="http://www.w3.org/2000/svg"><path d="M20.625 0C11.307 0 3.643 7.168 2.83 16.278c1.548-2.183 3.444-4.284 5.812-6.7a.459.459 0 01.654.642 109.037 109.037 0 00-1.693 1.767l-.11.12c-2.926 3.133-5.018 5.86-6.537 9.247a.459.459 0 00.837.376 25.158 25.158 0 011.874-3.412 17.861 17.861 0 0015.284-9.392.46.46 0 00-.01-.453.462.462 0 00-.394-.223H16.85l3.044-1.74a.46.46 0 00.207-.248 17.81 17.81 0 00.982-5.804.459.459 0 00-.458-.458z" fill="#000"/></svg>
